build/assets/images/svg/icons/login/eye-hide.svg

<svg width="24" height="24" viewBox="0 0 24 24" fill="none" xmlns="http://www.w3.org/2000/svg">
<path d="M20.7069 3.29289C21.0974 3.68342 21.0974 4.31658 20.7069 4.70711L4.70686 20.7071C4.31634 21.0976 3.68317 21.0976 3.29265 20.7071C2.90212 20.3166 2.90212 19.6834 3.29265 19.2929L19.2926 3.29289C19.6832 2.90237 20.3163 2.90237 20.7069 3.29289Z" fill="#969BA8"/>
<path d="M15.7993 5.37204C14.673 4.84163 13.403 4.5 11.9997 4.5C9.05564 4.5 6.69852 6.00369 5.02335 7.59968C3.34432 9.19934 2.25486 10.9797 1.82359 11.7498C1.54097 12.2545 1.50731 12.8571 1.7393 13.3924C1.90131 13.7662 2.17684 14.3452 2.58294 15.0172C2.86859 15.4899 3.48333 15.6415 3.95601 15.3559C4.42868 15.0702 4.58029 14.4555 4.29464 13.9828C3.96802 13.4423 3.74137 12.9749 3.60389 12.6644C4.00964 11.9493 4.9706 10.4123 6.40292 9.0477C7.8824 7.63816 9.76978 6.5 11.9997 6.5C12.8018 6.5 13.5595 6.64724 14.2699 6.90139L15.7993 5.37204Z" fill="#969BA8"/>
<path d="M17.6903 9.13789C19.0708 10.4795 19.9987 11.965 20.3956 12.6644C20.2581 12.9749 20.0315 13.4423 19.7048 13.9828C19.4192 14.4555 19.5708 15.0702 20.0435 15.3559C20.5161 15.6415 21.1309 15.4899 21.4165 15.0172C21.8226 14.3452 22.0982 13.7662 22.2602 13.3924C22.4922 12.8571 22.4585 12.2545 22.1759 11.7498C21.7557 10.9995 20.7108 9.29032 19.1046 7.72355L17.6903 9.13789Z" fill="#969BA8"/>
<path d="M11.9998 8C12.3632 8 12.7175 8.03877 13.0589 8.1124L11.0011 10.1702C10.1476 10.4714 9.4712 11.1478 9.16999 12.0013L7.11216 14.0592C7.03853 13.7178 6.99976 13.3634 6.99976 13C6.99976 10.2386 9.23833 8 11.9998 8Z" fill="#969BA8"/>
<path d="M11.9998 16C11.6489 16 11.3121 15.9398 10.9991 15.8291L9.49807 17.3301C10.2339 17.7561 11.0883 18 11.9998 18C14.7612 18 16.9998 15.7614 16.9998 13C16.9998 12.0886 16.7559 11.2341 16.3299 10.4983L14.8288 11.9994C14.9395 12.3123 14.9998 12.6491 14.9998 13C14.9998 14.6569 13.6566 16 11.9998 16Z" fill="#969BA8"/>
</svg>

<svg width="24" height="24" fill="none" xmlns="http://www.w3.org/2000/svg"><path d="M20.707 3.293a1 1 0 010 1.414l-16 16a1 1 0 01-1.414-1.414l16-16a1 1 0 011.414 0zM15.8 5.372A8.852 8.852 0 0012 4.5c-2.944 0-5.301 1.504-6.977 3.1-1.679 1.6-2.768 3.38-3.2 4.15a1.846 1.846 0 00-.084 1.642c.162.374.438.953.844 1.625a1 1 0 101.712-1.034 11.896 11.896 0 01-.691-1.319c.406-.715 1.367-2.252 2.799-3.616C7.883 7.638 9.77 6.5 12 6.5c.802 0 1.56.147 2.27.401l1.53-1.529zm1.89 3.766c1.38 1.341 2.309 2.827 2.706 3.526-.138.31-.364.778-.691 1.319a1 1 0 001.712 1.034c.406-.672.681-1.25.843-1.625a1.846 1.846 0 00-.084-1.642c-.42-.75-1.465-2.46-3.071-4.026L17.69 9.138z" fill="#969BA8"/><path d="M12 8c.363 0 .717.039 1.059.112L11 10.17a3.008 3.008 0 00-1.831 1.831L7.112 14.06A5 5 0 0112 8zm0 8c-.351 0-.688-.06-1-.17l-1.502 1.5a5 5 0 006.832-6.832L14.829 12A3 3 0 0112 16z" fill="#969BA8"/></svg>
